X:1
T:Jay faict pour vous
T:Claudin de Sermisy
T:Source : Chansons musicales eslevées de plusieurs livres---Paris---P.Attaignant---1535/1536 Editor : André Vierendeels ( 01/05/18) Notes : Original clefs : C1, C3, C4, F4 Original note values have been halved Editorial accidentals above the staff 
T:Jay faict pour vous
T:#
T:©
T:©
T:©
T:©
C:Claudin de Sermisy
Z:©
%%score [ 1 [ 2 3 ] 4 ]
L:1/8
Q:1/4=120
M:2/2
K:F
V:1 treble nm="Alto" snm="A"
V:2 treble-8 nm="Tenor 1" snm="T 1"
V:3 treble-8 nm="Tenor 2" snm="T 2"
V:4 bass nm="Bass" snm="B"
V:1
 z4 z2 F2 | G2 A2 B2 B2 | A2 G4 F2 | G2 G2 A2 B2 | cBAG F2 A2 | G2 F4 E2 | F4 z2 F2 | G2 A2 B2 B2 | %8
w: Jay|faict pour vous cent|mil- * le|pas et en- tre-|prins _ _ _ _ main-|te fo- li-|e, ves-|cu sans rei- gle|
"^#" A2 G4 F2 | G2 G2 A2 B2 | cBAG F2 A2 | G2 F4 E2 | F4 z4 | E4 G2 A2 | B6 B2 | A3 G FE G2- | %16
w: ne com- *|pas, dont ie suys|en _ _ _ me- len-|co- li- *|e,|las, que se-|ra ce|de _ _ _ ma-|
 GF F4 E2 | F4 z2 A2 | A2 A2 G2 A2- | AGFE F2 F2 | E4 z2 c2 | B2 A2 A2 GF | E2 G3 E A2- | %23
w: * * vi- *|e, il|ne me sur- vient|_ _ _ _ que mal-|heurs pour|ung plai- sir _ _|_ mil- * *|
 AG F4 E2 | F4 z2 c2 | B2 A2 A2 GF | E2 G3 E A2- | AG F4 E2 | F8 |] %29
w: * le dou- *|leurs, pour|ung plai- sir _ _|_ mil- * *|* le dou- *|leurs.|
V:2
 z4 z2 c2 | e2 f2 f2 f2 | fedc d2 d2 | B2 d2 d2 d2 | e2 e2 d2 c2 |"^b" edcB c4 | %6
w: Jay|faict pour vous cent|mil- * * * * le|pas et en- tre-|rins main- te fo-|li- * * * *|
"^-natural" A4 z2 c2 | e2 f2 f2 f2 | fedc d2 d2 | B2 d2 d2 d2 | e2 e2 d2 c2 |"^b" edcB c4 | A4 z4 | %13
w: e, ves-|su sans rei- gle|ne _ _ _ _ com-|pas, dont ie suys|en me- len- co-|li- * * * *|e,|
 c4 c2 c2 | d6 d2 | d2 c2 d2 e2 | c2 B2 c4 | A4 z2 f2 | f2 f2 d2 fe | dc c4 B2 | c4 z2 c2 | %21
w: las, que se-|ra ce|de ma vi- *||e, il|ne me sur- vient _|_ _ que mal-|heurs pour|
 F2 F2 f2 ed | c2 d4 d2 | c2 d2 c4 | A4 z2 c2 | F2 F2 f2 ed | c2 d4 d2 | c2 d2 c4 | A8 |] %29
w: ung plai- sir _ _|_ mil- le|dou- * *|leurs, pour|und plai- sir _ _|_ mil- le|dou- * *|leurs|
V:3
 z4 z2 F2 | c2 c2 d2 d2 | c2 B2 A4 | G2 B2 A2 F2 | G2 c2 A2 A2 | BAGF G4 | F4 z2 F2 | c2 c2 d2 d2 | %8
w: Jay|faict pour vous cent|mil- * le|pas, en- * tre-|prins main- te fo-|li- * * * *|e, ves-|cu sans rei- gle|
 c2 B2 A4 | G2 B2 A2 F2 | G2 c2 A2 A2 | BAGF G4 | F4 z4 | G4 E2 E2 | F2 G2 D3 E | FG A3 G B2 | %16
w: ne com- *|pas, dont ie suys|en me- len- co-|li- * * * *|e,|las, que se-|ra ce de- *|* * ma _ _|
"^b" A2 F2 G4 | F2 A2 c2 c2 | d2 c2 B2 c2 | F8 | z2 c2 B2 A2 | d2 c4 BA | GA B3 A/G/ FG | %23
w: vi- * *|e, il ne me|sur- vient que mal-|heurs|pour ung plai-|sir mil- * *||
 A2 B2 G2 G2 | F2 c2 B2 A2 | d2 c4 BA | GA B3 A/G/ FG | A2 B2 G2 G2 | F8 |] %29
w: * * le dou-|leurs, pour ung plai-|sir _ _ _|_ _ _ _ _ _ _|* mil- le dou-|leurs.|
V:4
 z4 z2 F,2 | C,2 F,2 B,,2 B,,2 | F,2 G,2 D,4 | z2 G,,2 D,2 D,2 | C,2 C,2 D,2 F,2 | _E,2 F,2 C,4 | %6
w: Jay|faict pour vous cent|mil- le pas,|en- tre- prins|main- te fo- li-||
 F,,4 z2 F,2 | C,2 F,2 B,,2 B,,2 | F,2 G,2 D,4 | z2 G,,2 D,2 D,2 | C,2 C,2 D,2 F,2 | _E,2 F,2 C,4 | %12
w: e, ves-|cu sans rei- gle|ne com- pas,|dont ie suye|en me- len- co-|li- * *|
 F,,4 z4 | C,4 C,2 C,2 | B,,2 G,,2 G,,A,,B,,C, |"^b" D,E, F,4 E,2 | F,2 D,2 C,4 | z2 F,2 F,2 F,2 | %18
w: e,|las, que se-|ra ce de _ _ _|_ _ _ ma|vi- * e,|il ne me|
 D,2 F,2 G,2 F,2- | F,E,D,C, D,4 | C,2 A,,2 G,,2 F,,2 | B,,2 F,,3 G,,A,,B,, | %22
w: sur- vient que mal-||heurs, pour ung pla-|sir mil- * * *|
 C,2 G,,A,, B,,C,D,E, | F,2 B,,2 C,4 | F,,2 A,,2 G,,2 F,,2 | B,,2 F,,3 G,,A,,B,, | %26
w: * le _ _ _ _ _|_ dou- *|leurs, pour ung plai-|sir mil- * * *|
 C,2 G,,A,, B,,C,D,E, | F,2 B,,2 C,4 | F,,8 |] %29
w: * le _ _ _ _ _|_ dou- *|leurs.|

